icons/git-pull-request-closed-24.svg

<svg width="24" height="24" viewBox="0 0 24 24" fill="none" xmlns="http://www.w3.org/2000/svg">
<path d="M22.2656 2.71124C22.5585 2.41834 22.5585 1.94347 22.2656 1.65058C21.9727 1.35768 21.4978 1.35768 21.2049 1.65058L19.2217 3.63383L17.2384 1.65058C16.9455 1.35768 16.4707 1.35768 16.1778 1.65058C15.8849 1.94347 15.8849 2.41834 16.1778 2.71124L18.161 4.69449L16.1778 6.67774C15.8849 6.97063 15.8849 7.44551 16.1778 7.7384C16.4707 8.03129 16.9455 8.03129 17.2384 7.7384L19.2217 5.75515L21.2049 7.7384C21.4978 8.03129 21.9727 8.03129 22.2656 7.7384C22.5585 7.44551 22.5585 6.97063 22.2656 6.67774L20.2823 4.69449L22.2656 2.71124Z" fill="black"/>
<path fill-rule="evenodd" clip-rule="evenodd" d="M4.75 1.49998C2.95507 1.49998 1.5 2.95505 1.5 4.74998C1.5 6.2885 2.56906 7.57734 4.00486 7.91416C4.00165 7.94232 4 7.97096 4 7.99998L4 16C4 16.029 4.00165 16.0576 4.00486 16.0858C2.56906 16.4226 1.5 17.7115 1.5 19.25C1.5 21.0449 2.95507 22.5 4.75 22.5C6.54493 22.5 8 21.0449 8 19.25C8 17.7115 6.93094 16.4226 5.49514 16.0858C5.49835 16.0576 5.5 16.029 5.5 16L5.5 7.99998C5.5 7.97096 5.49835 7.94232 5.49514 7.91416C6.93094 7.57734 8 6.2885 8 4.74998C8 2.95505 6.54493 1.49998 4.75 1.49998ZM3 4.74998C3 3.78348 3.7835 2.99998 4.75 2.99998C5.7165 2.99998 6.5 3.78348 6.5 4.74998C6.5 5.71648 5.7165 6.49998 4.75 6.49998C3.7835 6.49998 3 5.71648 3 4.74998ZM3 19.25C3 18.2835 3.7835 17.5 4.75 17.5C5.7165 17.5 6.5 18.2835 6.5 19.25C6.5 20.2165 5.7165 21 4.75 21C3.7835 21 3 20.2165 3 19.25Z" fill="black"/>
<path fill-rule="evenodd" clip-rule="evenodd" d="M16 19.25C16 17.7132 17.0666 16.4255 18.5 16.0869V9.62498C18.5 9.21076 18.8358 8.87498 19.25 8.87498C19.6642 8.87498 20 9.21076 20 9.62498V16.0869C21.4333 16.4255 22.5 17.7132 22.5 19.25C22.5 21.0449 21.0449 22.5 19.25 22.5C17.4551 22.5 16 21.0449 16 19.25ZM19.25 17.5C18.2835 17.5 17.5 18.2835 17.5 19.25C17.5 20.2165 18.2835 21 19.25 21C20.2165 21 21 20.2165 21 19.25C21 18.2835 20.2165 17.5 19.25 17.5Z" fill="black"/>
</svg>

<svg xmlns="http://www.w3.org/2000/svg" width="24" height="24" viewBox="0 0 24 24"><path d="M22.266 2.711a.75.75 0 10-1.061-1.06l-1.983 1.983-1.984-1.983a.75.75 0 10-1.06 1.06l1.983 1.983-1.983 1.984a.75.75 0 001.06 1.06l1.984-1.983 1.983 1.983a.75.75 0 001.06-1.06l-1.983-1.984 1.984-1.983z"/><path fill-rule="evenodd" d="M4.75 1.5a3.25 3.25 0 00-.745 6.414A.758.758 0 004 8v8a.81.81 0 00.005.086A3.251 3.251 0 004.75 22.5a3.25 3.25 0 00.745-6.414A.758.758 0 005.5 16V8a.758.758 0 00-.005-.086A3.251 3.251 0 004.75 1.5zM3 4.75a1.75 1.75 0 113.5 0 1.75 1.75 0 01-3.5 0zm0 14.5a1.75 1.75 0 113.5 0 1.75 1.75 0 01-3.5 0zm13 0a3.251 3.251 0 012.5-3.163V9.625a.75.75 0 011.5 0v6.462a3.251 3.251 0 01-.75 6.413A3.25 3.25 0 0116 19.25zm3.25-1.75a1.75 1.75 0 100 3.5 1.75 1.75 0 000-3.5z"/></svg>
